assets/icons/ic_setting.svg

<svg fill="none" height="40" viewBox="0 0 40 40" width="40" xmlns="http://www.w3.org/2000/svg"><rect fill="#fff" fill-opacity=".1" height="40" rx="20" width="40"/><path d="m27.9 20.66c-.1603-.1825-.2487-.4171-.2487-.66s.0884-.4775.2487-.66l1.28-1.44c.1411-.1573.2287-.3553.2502-.5655.0216-.2102-.024-.4218-.1302-.6045l-2-3.46c-.1051-.1825-.2651-.3271-.4572-.4133-.1922-.0862-.4066-.1096-.6128-.0667l-1.88.38c-.2392.0494-.4882.0096-.7001-.112s-.3719-.3165-.4499-.548l-.61-1.83c-.0671-.1986-.1949-.3711-.3654-.4932-.1704-.122-.3749-.18735-.5846-.18681h-4c-.218-.01139-.4338.04891-.6144.17171s-.316.3013-.3856.5083l-.56 1.83c-.078.2315-.238.4264-.4499.548-.2118.1216-.4609.1614-.7001.112l-1.93-.38c-.1954-.0276-.3947.0032-.5726.0886-.178.0854-.3267.2216-.4274.3914l-2 3.46c-.10882.1806-.15776.3911-.1398.6012s.1019.4092.2398.5688l1.27 1.44c.1603.1825.2488.4171.2488.66s-.0885.4775-.2488.66l-1.27 1.44c-.1379.1595-.22184.3586-.2398.5688-.01796.2101.03098.4205.1398.6012l2 3.46c.1051.1825.2651.3271.4573.4133.1921.0862.4065.1095.6127.0667l1.88-.38c.2392-.0494.4883-.0096.7001.112.2119.1216.3719.3165.4499.548l.61 1.83c.0696.207.205.3855.3856.5083s.3964.1831.6144.1717h4c.2097.0005.4142-.0648.5846-.1869.1705-.122.2983-.2945.3654-.4931l.61-1.83c.078-.2315.238-.4264.4499-.548s.4609-.1614.7001-.112l1.88.38c.2062.0428.4206.0195.6128-.0667.1921-.0862.3521-.2308.4572-.4133l2-3.46c.1062-.1827.1518-.3943.1302-.6045-.0215-.2102-.1091-.4082-.2502-.5655zm-1.49 1.34.8.9-1.28 2.22-1.18-.24c-.7202-.1472-1.4694-.0249-2.1054.3438s-1.1144.958-1.3446 1.6562l-.38 1.12h-2.56l-.36-1.14c-.2301-.6982-.7086-1.2875-1.3446-1.6562s-1.3852-.491-2.1054-.3438l-1.18.24-1.3-2.21.8-.9c.492-.55.764-1.2621.764-2s-.272-1.45-.764-2l-.8-.9 1.28-2.2 1.18.24c.7202.1472 1.4694.0249 2.1054-.3438s1.1145-.9581 1.3446-1.6562l.38-1.13h2.56l.38 1.14c.2302.6981.7086 1.2875 1.3446 1.6562s1.3852.491 2.1054.3438l1.18-.24 1.28 2.22-.8.9c-.4864.5487-.755 1.2567-.755 1.99s.2686 1.4412.755 1.99zm-6.77-6c-.7911 0-1.5645.2346-2.2223.6741s-1.1704 1.0642-1.4732 1.7952c-.3028.7309-.382 1.5351-.2276 2.311.1543.776.5353 1.4887 1.0947 2.0481s1.2721.9404 2.0481 1.0947c.7759.1544 1.5801.0752 2.3111-.2276.7309-.3027 1.3556-.8154 1.7951-1.4732s.6741-1.4312.6741-2.2223c0-1.0609-.4214-2.0783-1.1716-2.8284-.7501-.7502-1.7675-1.1716-2.8284-1.1716zm0 6c-.3955 0-.7822-.1173-1.1111-.3371-.3289-.2197-.5853-.5321-.7366-.8975-.1514-.3655-.191-.7676-.1139-1.1556.0772-.388.2677-.7443.5474-1.024s.6361-.4702 1.024-.5474c.388-.0772.7901-.0375 1.1556.1138.3654.1514.6778.4077.8976.7366.2197.3289.337.7156.337 1.1112 0 .5304-.2107 1.0391-.5858 1.4142-.375.3751-.8837.5858-1.4142.5858z" fill="#f1f5f9"/></svg>

<svg width="40" height="40" viewBox="0 0 40 40" fill="none" xmlns="http://www.w3.org/2000/svg">
<rect width="40" height="40" rx="20" fill="white" fill-opacity="0.1"/>
<path d="M27.9 20.66C27.7397 20.4775 27.6513 20.2429 27.6513 20C27.6513 19.7571 27.7397 19.5225 27.9 19.34L29.18 17.9C29.3211 17.7427 29.4087 17.5447 29.4302 17.3345C29.4518 17.1243 29.4062 16.9127 29.3 16.73L27.3 13.27C27.1949 13.0875 27.0349 12.9429 26.8428 12.8567C26.6506 12.7705 26.4362 12.7471 26.23 12.79L24.35 13.17C24.1108 13.2194 23.8618 13.1796 23.6499 13.058C23.438 12.9364 23.278 12.7415 23.2 12.51L22.59 10.68C22.5229 10.4814 22.3951 10.3089 22.2246 10.1868C22.0542 10.0648 21.8497 9.99945 21.64 9.99999H17.64C17.422 9.9886 17.2062 10.0489 17.0256 10.1717C16.845 10.2945 16.7096 10.473 16.64 10.68L16.08 12.51C16.002 12.7415 15.842 12.9364 15.6301 13.058C15.4183 13.1796 15.1692 13.2194 14.93 13.17L13 12.79C12.8046 12.7624 12.6053 12.7932 12.4274 12.8786C12.2494 12.964 12.1007 13.1002 12 13.27L10 16.73C9.89118 16.9106 9.84224 17.1211 9.8602 17.3312C9.87816 17.5413 9.9621 17.7404 10.1 17.9L11.37 19.34C11.5303 19.5225 11.6188 19.7571 11.6188 20C11.6188 20.2429 11.5303 20.4775 11.37 20.66L10.1 22.1C9.9621 22.2595 9.87816 22.4586 9.8602 22.6688C9.84224 22.8789 9.89118 23.0893 10 23.27L12 26.73C12.1051 26.9125 12.2651 27.0571 12.4573 27.1433C12.6494 27.2295 12.8638 27.2528 13.07 27.21L14.95 26.83C15.1892 26.7806 15.4383 26.8204 15.6501 26.942C15.862 27.0636 16.022 27.2585 16.1 27.49L16.71 29.32C16.7796 29.527 16.915 29.7055 17.0956 29.8283C17.2762 29.9511 17.492 30.0114 17.71 30H21.71C21.9197 30.0005 22.1242 29.9352 22.2946 29.8131C22.4651 29.6911 22.5929 29.5186 22.66 29.32L23.27 27.49C23.348 27.2585 23.508 27.0636 23.7199 26.942C23.9318 26.8204 24.1808 26.7806 24.42 26.83L26.3 27.21C26.5062 27.2528 26.7206 27.2295 26.9128 27.1433C27.1049 27.0571 27.2649 26.9125 27.37 26.73L29.37 23.27C29.4762 23.0873 29.5218 22.8757 29.5002 22.6655C29.4787 22.4553 29.3911 22.2573 29.25 22.1L27.9 20.66ZM26.41 22L27.21 22.9L25.93 25.12L24.75 24.88C24.0298 24.7328 23.2806 24.8551 22.6446 25.2238C22.0086 25.5925 21.5302 26.1818 21.3 26.88L20.92 28H18.36L18 26.86C17.7699 26.1618 17.2914 25.5725 16.6554 25.2038C16.0194 24.8351 15.2702 24.7128 14.55 24.86L13.37 25.1L12.07 22.89L12.87 21.99C13.362 21.44 13.634 20.7279 13.634 19.99C13.634 19.2521 13.362 18.54 12.87 17.99L12.07 17.09L13.35 14.89L14.53 15.13C15.2502 15.2772 15.9994 15.1549 16.6354 14.7862C17.2714 14.4175 17.7499 13.8281 17.98 13.13L18.36 12H20.92L21.3 13.14C21.5302 13.8381 22.0086 14.4275 22.6446 14.7962C23.2806 15.1649 24.0298 15.2872 24.75 15.14L25.93 14.9L27.21 17.12L26.41 18.02C25.9236 18.5687 25.655 19.2767 25.655 20.01C25.655 20.7433 25.9236 21.4512 26.41 22ZM19.64 16C18.8489 16 18.0755 16.2346 17.4177 16.6741C16.7599 17.1136 16.2473 17.7383 15.9445 18.4693C15.6417 19.2002 15.5625 20.0044 15.7169 20.7803C15.8712 21.5563 16.2522 22.269 16.8116 22.8284C17.371 23.3878 18.0837 23.7688 18.8597 23.9231C19.6356 24.0775 20.4398 23.9983 21.1708 23.6955C21.9017 23.3928 22.5264 22.8801 22.9659 22.2223C23.4054 21.5645 23.64 20.7911 23.64 20C23.64 18.9391 23.2186 17.9217 22.4684 17.1716C21.7183 16.4214 20.7009 16 19.64 16ZM19.64 22C19.2445 22 18.8578 21.8827 18.5289 21.6629C18.2 21.4432 17.9436 21.1308 17.7923 20.7654C17.6409 20.3999 17.6013 19.9978 17.6784 19.6098C17.7556 19.2218 17.9461 18.8655 18.2258 18.5858C18.5055 18.3061 18.8619 18.1156 19.2498 18.0384C19.6378 17.9612 20.0399 18.0009 20.4054 18.1522C20.7708 18.3036 21.0832 18.5599 21.303 18.8888C21.5227 19.2177 21.64 19.6044 21.64 20C21.64 20.5304 21.4293 21.0391 21.0542 21.4142C20.6792 21.7893 20.1705 22 19.64 22Z" fill="#F1F5F9"/>
</svg>
